X:242
T:A Trip to Glasgow #2
C:Joe Buchanan's Scottish Tome - Page 299.2
I:299 2
Z:Carl Allison
R:Jig
L:1/8
M:6/8
K:D
A | DFE DFA | BGB Ade | fdf ecA | BdB AFE |
DFE DFA | BGB ABc | dcd ecA | d3 d2 :|
cd | ecA ABc | dcd ecA | GBd FAd | EFG AFE |
DFE EFA | BGB ABc | dcd ecA | d3 d2 :|

